svgs/themed_icon_calendar_24.svg

<svg height="192" width="192" xmlns="http://www.w3.org/2000/svg"><path d="M146 30H46c-8.837 0-16 7.163-16 16v100c0 8.837 7.163 16 16 16h75.373a16 16 0 0 0 11.313-4.686l24.628-24.628A16 16 0 0 0 162 121.373V46c0-8.837-7.163-16-16-16Z" stroke="#000" stroke-width="12" fill="none"/><path d="M63.484 120c-1.824 0-3.144-.408-3.96-1.224-.816-.864-1.224-2.112-1.224-3.744 0-1.056.264-2.04.792-2.952.528-.912 1.248-1.848 2.16-2.808l13.536-14.256c2.016-2.16 3.456-4.08 4.32-5.76.912-1.68 1.368-3.36 1.368-5.04 0-4.32-2.664-6.48-7.992-6.48-1.392 0-2.832.192-4.32.576-1.44.384-2.952 1.056-4.536 2.016-1.296.768-2.496.936-3.6.504-1.056-.432-1.848-1.176-2.376-2.232a5.23 5.23 0 0 1-.36-3.312c.288-1.2 1.08-2.184 2.376-2.952a24.478 24.478 0 0 1 6.912-2.88c2.496-.672 4.968-1.008 7.416-1.008 5.664 0 9.984 1.272 12.96 3.816 3.024 2.496 4.536 6.072 4.536 10.728 0 3.072-.72 6.024-2.16 8.856-1.392 2.784-3.696 5.808-6.912 9.072l-9.792 9.936h16.704c3.12 0 4.68 1.512 4.68 4.536 0 3.072-1.56 4.608-4.68 4.608H63.484Zm61.316.648c-1.776 0-3.144-.48-4.104-1.44s-1.44-2.352-1.44-4.176v-4.104h-16.128c-1.776 0-3.192-.384-4.248-1.152-1.056-.816-1.584-2.04-1.584-3.672 0-.96.216-1.92.648-2.88.432-1.008 1.2-2.28 2.304-3.816l18.648-27.144c.816-1.248 1.704-2.16 2.664-2.736 1.008-.624 2.184-.936 3.528-.936 1.584 0 2.832.48 3.744 1.44.912.912 1.368 2.304 1.368 4.176v27.936h2.664c3.216 0 4.824 1.464 4.824 4.392 0 2.928-1.608 4.392-4.824 4.392H130.2v4.104c0 1.824-.48 3.216-1.44 4.176-.912.96-2.232 1.44-3.96 1.44Zm-5.544-18.504V85.368l-11.376 16.776h11.376Z"/></svg>

<?xml version="1.0" encoding="UTF-8" standalone="no"?><svg xmlns:android="http://schemas.android.com/apk/res/android" height="192" width="192" xmlns="http://www.w3.org/2000/svg">
  <path d="M146,30H46C37.163,30 30,37.163 30,46V146C30,154.837 37.163,162 46,162H121.373C125.616,162 129.686,160.314 132.686,157.314L157.314,132.686C160.314,129.686 162,125.616 162,121.373V46C162,37.163 154.837,30 146,30Z" fill="#000000" fill-opacity="0.0" stroke="#000000" stroke-width="12"/>
  <path d="M63.484,120C61.66,120 60.34,119.592 59.524,118.776C58.708,117.912 58.3,116.664 58.3,115.032C58.3,113.976 58.564,112.992 59.092,112.08C59.62,111.168 60.34,110.232 61.252,109.272L74.788,95.016C76.804,92.856 78.244,90.936 79.108,89.256C80.02,87.576 80.476,85.896 80.476,84.216C80.476,79.896 77.812,77.736 72.484,77.736C71.092,77.736 69.652,77.928 68.164,78.312C66.724,78.696 65.212,79.368 63.628,80.328C62.332,81.096 61.132,81.264 60.028,80.832C58.972,80.4 58.18,79.656 57.652,78.6C57.172,77.544 57.052,76.44 57.292,75.288C57.58,74.088 58.372,73.104 59.668,72.336C61.78,71.04 64.084,70.08 66.58,69.456C69.076,68.784 71.548,68.448 73.996,68.448C79.66,68.448 83.98,69.72 86.956,72.264C89.98,74.76 91.492,78.336 91.492,82.992C91.492,86.064 90.772,89.016 89.332,91.848C87.94,94.632 85.636,97.656 82.42,100.92L72.628,110.856H89.332C92.452,110.856 94.012,112.368 94.012,115.392C94.012,118.464 92.452,120 89.332,120H63.484ZM124.8,120.648C123.024,120.648 121.656,120.168 120.696,119.208C119.736,118.248 119.256,116.856 119.256,115.032V110.928H103.128C101.352,110.928 99.936,110.544 98.88,109.776C97.824,108.96 97.296,107.736 97.296,106.104C97.296,105.144 97.512,104.184 97.944,103.224C98.376,102.216 99.144,100.944 100.248,99.408L118.896,72.264C119.712,71.016 120.6,70.104 121.56,69.528C122.568,68.904 123.744,68.592 125.088,68.592C126.672,68.592 127.92,69.072 128.832,70.032C129.744,70.944 130.2,72.336 130.2,74.208V102.144H132.864C136.08,102.144 137.688,103.608 137.688,106.536C137.688,109.464 136.08,110.928 132.864,110.928H130.2V115.032C130.2,116.856 129.72,118.248 128.76,119.208C127.848,120.168 126.528,120.648 124.8,120.648ZM119.256,102.144V85.368L107.88,102.144H119.256Z" fill="#000000"/>
</svg>
